src/images/services/oversized-cargo-transportation.svg

<svg width="96" height="96" viewBox="0 0 96 96" fill="none" xmlns="http://www.w3.org/2000/svg">
<path fill-rule="evenodd" clip-rule="evenodd" d="M44.7959 17.75L44.7877 17.75L44.7795 17.75H36.033C34.3762 17.75 33.033 19.0932 33.033 20.75V46.184C33.033 46.5346 33.0932 46.8712 33.2037 47.184H29.5048H20.75C19.0931 47.184 17.75 48.5271 17.75 50.184V75.618C17.75 77.2748 19.0931 78.618 20.75 78.618H46.184C46.9523 78.618 47.6532 78.3291 48.184 77.8541C48.7147 78.3291 49.4156 78.618 50.184 78.618H75.6179C77.2748 78.618 78.6179 77.2748 78.6179 75.618V50.184C78.6179 48.5271 77.2748 47.184 75.6179 47.184H66.8632H64.2963C64.4068 46.8712 64.467 46.5346 64.467 46.184V20.75C64.467 19.0932 63.1238 17.75 61.467 17.75H52.7204L52.7123 17.75L52.7041 17.75H44.7959ZM65.8632 49.184H59.9387V59.1454L61.6653 57.7888C62.3905 57.219 63.4114 57.219 64.1366 57.7888L65.8632 59.1454L65.8632 49.184ZM57.9387 49.184V59.1454C57.9387 60.8143 59.8621 61.7491 61.1743 60.718L62.9009 59.3614L64.6276 60.718C65.9398 61.7491 67.8632 60.8143 67.8632 59.1454V49.184H75.6179C76.1702 49.184 76.6179 49.6317 76.6179 50.184V75.618C76.6179 76.1702 76.1702 76.618 75.6179 76.618H50.184C49.6322 76.618 49.1849 76.1712 49.184 75.6197V75.618V50.184C49.184 49.6317 49.6317 49.184 50.184 49.184H57.9387ZM47.184 50.184V75.618C47.184 76.1702 46.7362 76.618 46.184 76.618H20.75C20.1977 76.618 19.75 76.1702 19.75 75.618V50.184C19.75 49.6317 20.1977 49.184 20.75 49.184H28.5048V59.1454C28.5048 60.8143 30.4282 61.7491 31.7404 60.718L33.467 59.3614L35.1937 60.718C36.5059 61.7491 38.4293 60.8143 38.4293 59.1454V49.184H46.184C46.7357 49.184 47.183 49.6308 47.184 50.1823L47.184 50.184ZM36.4293 49.184V59.1454L34.7027 57.7888C33.9775 57.219 32.9566 57.219 32.2314 57.7888L30.5048 59.1454V49.184H36.4293ZM43.7877 19.75H36.033C35.4807 19.75 35.033 20.1977 35.033 20.75V46.184C35.033 46.7363 35.4807 47.184 36.033 47.184H61.467C62.0193 47.184 62.467 46.7363 62.467 46.184V20.75C62.467 20.1977 62.0193 19.75 61.467 19.75H53.7123V29.7114C53.7123 31.3803 51.7889 32.3151 50.4766 31.284L48.75 29.9274L47.0234 31.284C45.7111 32.3151 43.7877 31.3803 43.7877 29.7114V19.75ZM51.7123 19.75L51.7123 29.7114L49.9856 28.3548C49.2604 27.785 48.2396 27.785 47.5144 28.3548L45.7877 29.7114V19.75H51.7123ZM51.7123 39.9764C51.7123 39.4241 52.16 38.9764 52.7123 38.9764H59.2217C59.774 38.9764 60.2217 39.4241 60.2217 39.9764C60.2217 40.5287 59.774 40.9764 59.2217 40.9764H52.7123C52.16 40.9764 51.7123 40.5287 51.7123 39.9764ZM52.7123 42.0896C52.16 42.0896 51.7123 42.5373 51.7123 43.0896C51.7123 43.6419 52.16 44.0896 52.7123 44.0896H59.2217C59.774 44.0896 60.2217 43.6419 60.2217 43.0896C60.2217 42.5373 59.774 42.0896 59.2217 42.0896H52.7123ZM36.4293 69.4104C36.4293 68.8581 36.877 68.4104 37.4293 68.4104H43.9387C44.491 68.4104 44.9387 68.8581 44.9387 69.4104C44.9387 69.9627 44.491 70.4104 43.9387 70.4104H37.4293C36.877 70.4104 36.4293 69.9627 36.4293 69.4104ZM37.4293 71.5236C36.877 71.5236 36.4293 71.9713 36.4293 72.5236C36.4293 73.0759 36.877 73.5236 37.4293 73.5236H43.9387C44.491 73.5236 44.9387 73.0759 44.9387 72.5236C44.9387 71.9713 44.491 71.5236 43.9387 71.5236H37.4293ZM65.8632 69.4104C65.8632 68.8581 66.3109 68.4104 66.8632 68.4104H73.3726C73.9249 68.4104 74.3726 68.8581 74.3726 69.4104C74.3726 69.9627 73.9249 70.4104 73.3726 70.4104H66.8632C66.3109 70.4104 65.8632 69.9627 65.8632 69.4104ZM66.8632 71.5236C66.3109 71.5236 65.8632 71.9713 65.8632 72.5236C65.8632 73.0759 66.3109 73.5236 66.8632 73.5236H73.3726C73.9249 73.5236 74.3726 73.0759 74.3726 72.5236C74.3726 71.9713 73.9249 71.5236 73.3726 71.5236H66.8632Z" fill="#00CC66"/>
</svg>

<svg xmlns="http://www.w3.org/2000/svg" width="96" height="96" fill="none"><path fill="#0C6" fill-rule="evenodd" d="M44.796 17.75h-8.763a3 3 0 0 0-3 3v25.434c0 .35.06.687.17 1H20.75a3 3 0 0 0-3 3v25.434a3 3 0 0 0 3 3h25.434a2.99 2.99 0 0 0 2-.764c.53.475 1.232.764 2 .764h25.434a3 3 0 0 0 3-3V50.184a3 3 0 0 0-3-3H64.296c.11-.313.171-.65.171-1V20.75a3 3 0 0 0-3-3H44.796Zm21.067 31.434H59.94v9.961l1.726-1.356a2 2 0 0 1 2.472 0l1.726 1.356v-9.961Zm-7.924 0v9.961c0 1.67 1.923 2.604 3.235 1.573l1.727-1.357 1.727 1.357c1.312 1.031 3.235.096 3.235-1.573v-9.961h7.755a1 1 0 0 1 1 1v25.434a1 1 0 0 1-1 1H50.184a1 1 0 0 1-1-.998V50.184a1 1 0 0 1 1-1h7.755Zm-10.755 1v25.434a1 1 0 0 1-1 1H20.75a1 1 0 0 1-1-1V50.184a1 1 0 0 1 1-1h7.755v9.961c0 1.67 1.923 2.604 3.235 1.573l1.727-1.357 1.727 1.357c1.312 1.031 3.235.096 3.235-1.573v-9.961h7.755a1 1 0 0 1 1 .998v.002Zm-10.755-1v9.961l-1.726-1.356a2 2 0 0 0-2.472 0l-1.726 1.356v-9.961h5.924Zm7.359-29.434h-7.755a1 1 0 0 0-1 1v25.434a1 1 0 0 0 1 1h25.434a1 1 0 0 0 1-1V20.75a1 1 0 0 0-1-1h-7.755v9.961c0 1.67-1.923 2.604-3.235 1.573l-1.727-1.357-1.727 1.357c-1.312 1.031-3.235.096-3.235-1.573V19.75Zm7.924 0v9.961l-1.726-1.356a2 2 0 0 0-2.472 0l-1.726 1.356V19.75h5.924Zm0 20.226a1 1 0 0 1 1-1h6.51a1 1 0 1 1 0 2h-6.51a1 1 0 0 1-1-1Zm1 2.114a1 1 0 1 0 0 2h6.51a1 1 0 1 0 0-2h-6.51ZM36.43 69.41a1 1 0 0 1 1-1h6.51a1 1 0 1 1 0 2h-6.51a1 1 0 0 1-1-1Zm1 2.114a1 1 0 1 0 0 2h6.51a1 1 0 1 0 0-2h-6.51Zm28.434-2.114a1 1 0 0 1 1-1h6.51a1 1 0 1 1 0 2h-6.51a1 1 0 0 1-1-1Zm1 2.114a1 1 0 1 0 0 2h6.51a1 1 0 1 0 0-2h-6.51Z" clip-rule="evenodd"/></svg>
